icons/4_Outdated/Pinterest v1.svg

<svg width="1024" height="1024" fill="none" xmlns="http://www.w3.org/2000/svg"><g clip-path="url(#a)"><path d="M512 1024c282.77 0 512-229.23 512-512S794.77 0 512 0 0 229.23 0 512s229.23 512 512 512Z" fill="#BA6561"/><path d="M511.74 256C370.5 256 256 370.5 256 511.72c0 108.35 67.37 200.9 162.52 238.12-2.24-20.25-4.25-51.26.87-73.37 4.67-20 30-127.08 30-127.08s-7.66-15.36-7.66-38c0-35.48 20.63-62.1 46.25-62.1 21.85 0 32.38 16.41 32.38 36 0 22-13.93 54.76-21.16 85.16-6.08 25.45 12.8 46.19 37.87 46.19 45.4 0 80.38-47.89 80.38-117.06 0-61-44-103.87-106.84-103.87-72.75 0-115.39 54.66-115.39 110.91 0 22 8.41 45.72 19 58.47a7.802 7.802 0 0 1 1.81 7.36c-1.92 8-6.25 25.58-7.13 29.08-1.13 4.8-3.67 5.78-8.55 3.52-31.89-14.72-51.9-61.4-51.9-99.11 0-80.55 58.62-154.71 169-154.71 88.7 0 157.7 63.3 157.7 147.69 0 88.21-55.62 159.19-133 159.19-25.9 0-50.22-13.42-58.84-29.42l-16 60.76c-5.74 22.29-21.42 50.18-32 67.11A256.566 256.566 0 0 0 511.06 768C652 768 766.74 653.55 766.74 512.28c0-141.27-114.74-255.73-255.68-255.73l.68-.55Z" fill="#fff"/></g><defs><clipPath id="a"><path fill="#fff" d="M0 0h1024v1024H0z"/></clipPath></defs></svg>

<svg width="1024" height="1024" viewBox="0 0 1024 1024" fill="none" xmlns="http://www.w3.org/2000/svg">
<g clip-path="url(#clip0_3_638)">
<path d="M512 1024C794.77 1024 1024 794.77 1024 512C1024 229.23 794.77 0 512 0C229.23 0 0 229.23 0 512C0 794.77 229.23 1024 512 1024Z" fill="#BA6561"/>
<path d="M511.74 256C370.5 256 256 370.5 256 511.72C256 620.07 323.37 712.62 418.52 749.84C416.28 729.59 414.27 698.58 419.39 676.47C424.06 656.47 449.39 549.39 449.39 549.39C449.39 549.39 441.73 534.03 441.73 511.39C441.73 475.91 462.36 449.29 487.98 449.29C509.83 449.29 520.36 465.7 520.36 485.29C520.36 507.29 506.43 540.05 499.2 570.45C493.12 595.9 512 616.64 537.07 616.64C582.47 616.64 617.45 568.75 617.45 499.58C617.45 438.58 573.45 395.71 510.61 395.71C437.86 395.71 395.22 450.37 395.22 506.62C395.22 528.62 403.63 552.34 414.22 565.09C415.123 566.062 415.762 567.248 416.079 568.535C416.396 569.823 416.379 571.171 416.03 572.45C414.11 580.45 409.78 598.03 408.9 601.53C407.77 606.33 405.23 607.31 400.35 605.05C368.46 590.33 348.45 543.65 348.45 505.94C348.45 425.39 407.07 351.23 517.45 351.23C606.15 351.23 675.15 414.53 675.15 498.92C675.15 587.13 619.53 658.11 542.15 658.11C516.25 658.11 491.93 644.69 483.31 628.69L467.31 689.45C461.57 711.74 445.89 739.63 435.31 756.56C459.845 764.143 485.38 767.999 511.06 768C652 768 766.74 653.55 766.74 512.28C766.74 371.01 652 256.55 511.06 256.55L511.74 256Z" fill="white"/>
</g>
<defs>
<clipPath id="clip0_3_638">
<rect width="1024" height="1024" fill="white"/>
</clipPath>
</defs>
</svg>
